img/bkg.svg

<?xml version="1.0" encoding="utf-8"?>
<!-- Generator: Adobe Illustrator 23.0.1, SVG Export Plug-In . SVG Version: 6.00 Build 0)  -->
<svg version="1.1" id="visual" xmlns="http://www.w3.org/2000/svg" xmlns:xlink="http://www.w3.org/1999/xlink" x="0px" y="0px"
	 viewBox="0 0 960 540" style="enable-background:new 0 0 960 540;" xml:space="preserve">
<style type="text/css">
	.st0{fill:#161E3A;}
	.st1{fill:#182040;}
	.st2{fill:#1A2345;}
	.st3{fill:#1C254B;}
	.st4{fill:#222A54;}
	.st5{fill:#2B335F;}
	.st6{fill:#343D6B;}
	.st7{fill:#3D4677;}
</style>
<path class="st0" d="M0,60l20-7.2c20-7.1,60-21.5,100-26s80,0.9,120,3.5c40,2.7,80,2.7,120,1.9c40-0.9,80-2.5,120,1.1
	C520,37,560,46,600,47.8c40,1.9,80-3.5,120-9.8s80-13.7,120-10.2s80,17.9,100,25l20,7.2V0h-20c-20,0-60,0-100,0s-80,0-120,0
	s-80,0-120,0s-80,0-120,0s-80,0-120,0s-80,0-120,0s-80,0-120,0S40,0,20,0H0V60z"/>
<path class="st1" d="M0,93l20,2.7c20,2.6,60,8,100,14.3s80,13.7,120,13.7s80-7.4,120-13.7s80-11.7,120-15.3c40-3.7,80-5.7,120-1.2
	s80,15.5,120,10.2c40-5.4,80-27,120-31.5s80,8.1,100,14.5l20,6.3V58l-20-7.2c-20-7.1-60-21.5-100-25S760,29.7,720,36
	s-80,11.7-120,9.8C560,44,520,35,480,31.3c-40-3.6-80-2-120-1.1c-40,0.8-80,0.8-120-1.9c-40-2.6-80-8-120-3.5s-80,18.9-100,26L0,58
	V93z"/>
<path class="st2" d="M0,136l20,4.5c20,4.5,60,13.5,100,20.7c40,7.1,80,12.5,120,12.5s80-5.4,120-13.4s80-18.6,120-20.5
	c40-1.8,80,5.2,120,13.2s80,17,120,7.2c40-9.9,80-38.5,120-40.4c40-1.8,80,23.2,100,35.7l20,12.5V91l-20-6.3c-20-6.4-60-19-100-14.5
	s-80,26.1-120,31.5c-40,5.3-80-5.7-120-10.2s-80-2.5-120,1.2c-40,3.6-80,9-120,15.3s-80,13.7-120,13.7s-80-7.4-120-13.7
	S40,96.3,20,93.7L0,91V136z"/>
<path class="st3" d="M0,201l20-1.8c20-1.9,60-5.5,100-4.7s80,6.2,120,11.5s80,10.7,120,4.3c40-6.3,80-24.3,120-30.5
	c40-6.1,80-0.5,120,8.5s80,21.4,120,10.5c40-10.8,80-44.8,120-48.3s80,23.5,100,37l20,13.5v-35l-20-12.5c-20-12.5-60-37.5-100-35.7
	c-40,1.9-80,30.5-120,40.4c-40,9.8-80,0.8-120-7.2s-80-15-120-13.2c-40,1.9-80,12.5-120,20.5s-80,13.4-120,13.4s-80-5.4-120-12.5
	C80,152,40,143,20,138.5L0,134V201z"/>
<path class="st4" d="M0,303l20-3.5C40,296,80,289,120,289s80,7,120,7s80-7,120-20.5s80-33.5,120-36.2c40-2.6,80,12,120,28.4
	c40,16.3,80,34.3,120,21.6c40-12.6,80-56,120-67.8s80,7.8,100,17.7l20,9.8v-50l-20-13.5c-20-13.5-60-40.5-100-37s-80,37.5-120,48.3
	c-40,10.9-80-1.5-120-10.5s-80-14.6-120-8.5c-40,6.2-80,24.2-120,30.5c-40,6.4-80,1-120-4.3s-80-10.7-120-11.5s-80,2.8-100,4.7
	L0,199V303z"/>
<path class="st5" d="M0,460l20-1.8c20-1.9,60-5.5,100-11.9c40-6.3,80-15.3,120-33.3s80-45,120-49.5S440,377,480,395s80,36,120,44.2
	c40,8.1,80,6.5,120-12.4c40-18.8,80-54.8,120-60.3s80,19.5,100,32l20,12.5V247l-20-9.8c-20-9.9-60-29.5-100-17.7s-80,55.2-120,67.8
	c-40,12.7-80-5.3-120-21.6c-40-16.4-80-31-120-28.4c-40,2.7-80,22.7-120,36.2S280,294,240,294s-80-7-120-7s-80,7-100,10.5L0,301V460
	z"/>
<path class="st6" d="M0,482l20-3.7c20-3.6,60-11,100-18.3s80-14.7,120-27.3C280,420,320,402,360,402s80,18,120,35.2
	c40,17.1,80,33.5,120,39s80,0.1,120-18.7s80-51.2,120-57.5s80,13.3,100,23.2l20,9.8v-24l-20-12.5c-20-12.5-60-37.5-100-32
	s-80,41.5-120,60.3c-40,18.9-80,20.5-120,12.4C560,429,520,411,480,393s-80-36-120-31.5S280,393,240,411s-80,27-120,33.3
	c-40,6.4-80,10-100,11.9L0,458V482z"/>
<path class="st7" d="M0,541h20c20,0,60,0,100,0s80,0,120,0s80,0,120,0s80,0,120,0s80,0,120,0s80,0,120,0s80,0,120,0s80,0,100,0h20
	V431l-20-9.8c-20-9.9-60-29.5-100-23.2s-80,38.7-120,57.5s-80,24.2-120,18.7s-80-21.9-120-39C440,418,400,400,360,400
	s-80,18-120,30.7c-40,12.6-80,20-120,27.3s-80,14.7-100,18.3L0,480V541z"/>
</svg>

<svg id="visual" viewBox="0 0 960 540" width="960" height="540" xmlns="http://www.w3.org/2000/svg" xmlns:xlink="http://www.w3.org/1999/xlink" version="1.1"><path d="M0 60L20 52.8C40 45.7 80 31.3 120 26.8C160 22.3 200 27.7 240 30.3C280 33 320 33 360 32.2C400 31.3 440 29.7 480 33.3C520 37 560 46 600 47.8C640 49.7 680 44.3 720 38C760 31.7 800 24.3 840 27.8C880 31.3 920 45.7 940 52.8L960 60L960 0L940 0C920 0 880 0 840 0C800 0 760 0 720 0C680 0 640 0 600 0C560 0 520 0 480 0C440 0 400 0 360 0C320 0 280 0 240 0C200 0 160 0 120 0C80 0 40 0 20 0L0 0Z" fill="#161e3a"></path><path d="M0 93L20 95.7C40 98.3 80 103.7 120 110C160 116.3 200 123.7 240 123.7C280 123.7 320 116.3 360 110C400 103.7 440 98.3 480 94.7C520 91 560 89 600 93.5C640 98 680 109 720 103.7C760 98.3 800 76.7 840 72.2C880 67.7 920 80.3 940 86.7L960 93L960 58L940 50.8C920 43.7 880 29.3 840 25.8C800 22.3 760 29.7 720 36C680 42.3 640 47.7 600 45.8C560 44 520 35 480 31.3C440 27.7 400 29.3 360 30.2C320 31 280 31 240 28.3C200 25.7 160 20.3 120 24.8C80 29.3 40 43.7 20 50.8L0 58Z" fill="#182040"></path><path d="M0 136L20 140.5C40 145 80 154 120 161.2C160 168.3 200 173.7 240 173.7C280 173.7 320 168.3 360 160.3C400 152.3 440 141.7 480 139.8C520 138 560 145 600 153C640 161 680 170 720 160.2C760 150.3 800 121.7 840 119.8C880 118 920 143 940 155.5L960 168L960 91L940 84.7C920 78.3 880 65.7 840 70.2C800 74.7 760 96.3 720 101.7C680 107 640 96 600 91.5C560 87 520 89 480 92.7C440 96.3 400 101.7 360 108C320 114.3 280 121.7 240 121.7C200 121.7 160 114.3 120 108C80 101.7 40 96.3 20 93.7L0 91Z" fill="#1a2345"></path><path d="M0 201L20 199.2C40 197.3 80 193.7 120 194.5C160 195.3 200 200.7 240 206C280 211.3 320 216.7 360 210.3C400 204 440 186 480 179.8C520 173.7 560 179.3 600 188.3C640 197.3 680 209.7 720 198.8C760 188 800 154 840 150.5C880 147 920 174 940 187.5L960 201L960 166L940 153.5C920 141 880 116 840 117.8C800 119.7 760 148.3 720 158.2C680 168 640 159 600 151C560 143 520 136 480 137.8C440 139.7 400 150.3 360 158.3C320 166.3 280 171.7 240 171.7C200 171.7 160 166.3 120 159.2C80 152 40 143 20 138.5L0 134Z" fill="#1c254b"></path><path d="M0 303L20 299.5C40 296 80 289 120 289C160 289 200 296 240 296C280 296 320 289 360 275.5C400 262 440 242 480 239.3C520 236.7 560 251.3 600 267.7C640 284 680 302 720 289.3C760 276.7 800 233.3 840 221.5C880 209.7 920 229.3 940 239.2L960 249L960 199L940 185.5C920 172 880 145 840 148.5C800 152 760 186 720 196.8C680 207.7 640 195.3 600 186.3C560 177.3 520 171.7 480 177.8C440 184 400 202 360 208.3C320 214.7 280 209.3 240 204C200 198.7 160 193.3 120 192.5C80 191.7 40 195.3 20 197.2L0 199Z" fill="#222a54"></path><path d="M0 460L20 458.2C40 456.3 80 452.7 120 446.3C160 440 200 431 240 413C280 395 320 368 360 363.5C400 359 440 377 480 395C520 413 560 431 600 439.2C640 447.3 680 445.7 720 426.8C760 408 800 372 840 366.5C880 361 920 386 940 398.5L960 411L960 247L940 237.2C920 227.3 880 207.7 840 219.5C800 231.3 760 274.7 720 287.3C680 300 640 282 600 265.7C560 249.3 520 234.7 480 237.3C440 240 400 260 360 273.5C320 287 280 294 240 294C200 294 160 287 120 287C80 287 40 294 20 297.5L0 301Z" fill="#2b335f"></path><path d="M0 482L20 478.3C40 474.7 80 467.3 120 460C160 452.7 200 445.3 240 432.7C280 420 320 402 360 402C400 402 440 420 480 437.2C520 454.3 560 470.7 600 476.2C640 481.7 680 476.3 720 457.5C760 438.7 800 406.3 840 400C880 393.7 920 413.3 940 423.2L960 433L960 409L940 396.5C920 384 880 359 840 364.5C800 370 760 406 720 424.8C680 443.7 640 445.3 600 437.2C560 429 520 411 480 393C440 375 400 357 360 361.5C320 366 280 393 240 411C200 429 160 438 120 444.3C80 450.7 40 454.3 20 456.2L0 458Z" fill="#343d6b"></path><path d="M0 541L20 541C40 541 80 541 120 541C160 541 200 541 240 541C280 541 320 541 360 541C400 541 440 541 480 541C520 541 560 541 600 541C640 541 680 541 720 541C760 541 800 541 840 541C880 541 920 541 940 541L960 541L960 431L940 421.2C920 411.3 880 391.7 840 398C800 404.3 760 436.7 720 455.5C680 474.3 640 479.7 600 474.2C560 468.7 520 452.3 480 435.2C440 418 400 400 360 400C320 400 280 418 240 430.7C200 443.3 160 450.7 120 458C80 465.3 40 472.7 20 476.3L0 480Z" fill="#3d4677"></path></svg>
